!!!!SEGMENT: pl-cz--iii-47--006_bulakowski-stefan--msza-as-et-resurrexit.krn
!!!cenid: 18xx:697
!!!COM: Bułakowski, Stefan
!!!COM-rismID: pe30085804
!!!CDT: 1784-1852
!!!CNT:
!!!OPR: Msza As
!!!OTL: Et resurrexit
!!!OMV: 006
!!!PDT:
!!!AGN: Sacred; Mass
!!!SMS-siglum: PL-CZ
!!!SMS-shelfmark: III-47
!!!SMS-shelfwork: 001-006 M
!!!SMS-variant:
!!!SMS-altvar:
!!!NIFC-rismSourceID: 300000053
!!!NIFC-rismChildID: 300000053
!!!NIFC-islandoraID: pl-cz:38687
!!!URL-pdf-islandora: https://repozytorium.nifc.pl/islandora/object/pl-cz%3A38687/datastream/PDF/view
!!!URL-scan: https://polish.musicsources.pl/pl/lokalizacje/galeria/rekopisy/6939/1 @EN{Scan on Polish Music Sources Website} @PL{Skany w portalu Dziedzictwo Muzyki Polskiej w otwartym dostępie}
!!!ONB-nifc: UWAGA: części Mszy: Kyrie, Gloria, Justus ut palma, Credo, Et incarnatus, Et resurrexit,
!!!AIN: 1 bass 2 clars 2 cor 2 fagot 2 tenor 1 tromt
!!!key:
**kern	**text	**dynam	**kern	**text	**dynam	**kern	**text	**dynam	**kern	**dynam	**kern	**dynam	**kern	**dynam	**kern	**dynam	**kern	**dynam	**kern	**dynam	**kern	**dynam
*part10	*part10	*part10	*part9	*part9	*part9	*part8	*part8	*part8	*part7	*part7	*part6	*part6	*part5	*part5	*part4	*part4	*part3	*part3	*part2	*part2	*part1	*part1
*staff10	*staff10	*	*staff9	*staff9	*	*staff8	*staff8	*	*staff7	*	*staff6	*	*staff5	*	*staff4	*	*staff3	*	*staff2	*	*staff1	*
*Ibass	*	*	*Itenor	*	*	*Itenor	*	*	*Itromt	*	*Icor	*	*Icor	*	*Ifagot	*	*Ifagot	*	*Iclars	*	*Iclars	*
*I"Basso.	*	*	*I"Tenore 2do	*	*	*I"Tenore 1mo	*	*	*I"Trombone.	*	*I"Corno 2do in As.	*	*I"Corno 1mo in As.	*	*I"Fagotto. 2do	*	*I"Fagotto 1mo	*	*I"Clarinetto 2do in B.	*	*I"Clarinetto 1mo in B.	*
*I'B	*	*	*I'T 2	*	*	*I'T 1	*	*	*I'trb	*	*I'cor 2 in A|b	*	*I'cor 1 in A|b	*	*I'fag 2	*	*I'fag 1	*	*I'cl 2 in B|b	*	*I'cl 1 in B|b	*
*group3	*	*	*group3	*	*	*group3	*	*	*group2	*	*group2	*	*group2	*	*group1	*	*group1	*	*group1	*	*group1	*
*clefF4	*	*	*clefC4	*	*	*clefC4	*	*	*clefF4	*	*clefG2	*	*clefG2	*	*clefF4	*	*clefF4	*	*clefG2	*	*clefG2	*
*	*	*	*	*	*	*	*	*	*	*	*ITrd5c9	*	*ITrd-2c-3	*	*	*	*	*	*ITrd1c2	*	*ITrd1c2	*
*k[b-e-a-]	*	*	*k[b-e-a-]	*	*	*k[b-e-a-]	*	*	*k[b-e-a-]	*	*k[b-e-a-]	*	*k[b-e-a-]	*	*k[b-e-a-]	*	*k[b-e-a-]	*	*k[b-e-a-]	*	*k[b-e-a-]	*
*E-:	*	*	*E-:	*	*	*E-:	*	*	*E-:	*	*	*	*	*	*E-:	*	*E-:	*	*E-:	*	*E-:	*
*M4/4	*	*	*M4/4	*	*	*M4/4	*	*	*M4/4	*	*M4/4	*	*M4/4	*	*M4/4	*	*M4/4	*	*M4/4	*	*M4/4	*
*met(c)	*	*	*met(c)	*	*	*met(c)	*	*	*met(c)	*	*met(c)	*	*met(c)	*	*met(c)	*	*met(c)	*	*met(c)	*	*met(c)	*
=1	=1	=1	=1	=1	=1	=1	=1	=1	=1	=1	=1	=1	=1	=1	=1	=1	=1	=1	=1	=1	=1	=1
*2\right	*	*	*2\right	*	*	*2\right	*	*	*2\right	*	*2\right	*	*2\right	*	*2\right	*	*2\right	*	*2\right	*	*2\right	*
!	!	!	!	!	!	!	!	!	!	!	!LO:TX:a:t=P:problem= od części 004 Credo transpozycja in Es.	!	!LO:TX:a:t=P:problem= od części 004 Credo transpozycja in Es.	!	!	!	!	!	!	!	!	!
!LO:TX:a:t=Allegro.	!	!	!LO:TX:a:t=Allegro.	!	!	!LO:TX:b:t=Et Resurecsit	!	!	!LO:TX:a:t=Allegro.	!	!LO:TX:a:t=Allegro	!	!LO:TX:a:t=Allegro.	!	!LO:TX:a:t=allegro.	!	!LO:TX:a:t=Allegro.	!	!LO:TX:a:t=Allegro.	!	!LO:TX:a:t=Allegro.	!
!LO:TX:b:t=Et Resurexit	!	!LO:DY:b	!LO:TX:b:t=Et Resurexit	!	!LO:DY:b	!LO:TX:a:t=Allegro.	!	!LO:DY:b	!LO:TX:b:t=Etresurecsit	!LO:DY:b	!LO:TX:b:t=Etrcsurexit	!LO:DY:b	!LO:TX:b:t=Et Resurexit	!LO:DY:b	!LO:TX:b:t=Etresurexit	!LO:DY:b	!LO:TX:b:t=Et Resurexit	!LO:DY:b	!LO:TX:b:t=Etresurexit	!LO:DY:b	!LO:TX:b:t=Etresurexit	!LO:DY:b
*	*	*	*	*	*	*	*	*	*	*	*	*	*	*	*tremolo	*	*tremolo	*	*tremolo	*	*tremolo	*
*	*	*	*	*	*	*	*	*	*	*	*	*	*	*	*tremolo	*	*	*	*	*	*	*
*	*	*	*	*	*	*	*	*	*	*	*	*	*	*	*	*	*tremolo	*	*	*	*	*
*	*	*	*	*	*	*	*	*	*	*	*	*	*	*	*	*	*	*	*tremolo	*	*	*
*	*	*	*	*	*	*	*	*	*	*	*	*	*	*	*	*	*	*	*	*	*tremolo	*
2E-\	Et	f	2E-/	Et	f	2E-/	Et	f	4E-\	ff	8E-/	f	8e-/	ff	(16E-\LL	ff	(16E-\L	ff	(16e-/LL	f	(16e-/L	f
.	.	.	.	.	.	.	.	.	.	.	.	.	.	.	16Dn\	.	16Dn\	.	16d/	.	16d/	.
.	.	.	.	.	.	.	.	.	.	.	4E-/	.	4e-/	.	16E-\	.	16E-\	.	16e-/	.	16e-/	.
.	.	.	.	.	.	.	.	.	.	.	.	.	.	.	16Dn\	.	16Dn\	.	16d/	.	16d/	.
.	.	.	.	.	.	.	.	.	4E-\	.	.	.	.	.	16E-\	.	16E-\	.	16e-/	.	16e-/	.
.	.	.	.	.	.	.	.	.	.	.	.	.	.	.	16Dn\	.	16Dn\	.	16d/	.	16d/	.
.	.	.	.	.	.	.	.	.	.	.	4E-/	.	4e-/	.	16E-\	.	16E-\	.	16e-/	.	16e-/	.
.	.	.	.	.	.	.	.	.	.	.	.	.	.	.	16Dn\)JJ	.	16Dn\)J	.	16d/)JJ	.	16d/)J	.
*	*	*	*	*	*	*	*	*	*	*	*	*	*	*	*Xtremolo	*	*Xtremolo	*	*Xtremolo	*	*Xtremolo	*
4E-\	re-	.	4E-/	re-	.	4E-/	re-	.	4E-\	.	.	.	.	.	(16E-\LL	.	(16E-\LL	.	(16e-/LL	.	(16e-/LL	.
.	.	.	.	.	.	.	.	.	.	.	.	.	.	.	16D\	.	16D\	.	16d/	.	16d/	.
.	.	.	.	.	.	.	.	.	.	.	4E-/	.	4e-/	.	16E-\	.	16E-\	.	16e-/	.	16e-/	.
.	.	.	.	.	.	.	.	.	.	.	.	.	.	.	16D\JJ)	.	16D\JJ)	.	16d/JJ)	.	16d/JJ)	.
!	!LO:MO:mod=sur-	!	!	!LO:MO:mod=sur-	!	!	!LO:MO:mod=sur-	!	!	!	!	!	!	!	!	!	!	!	!	!	!	!
4E-\	-su-	.	4E-/	-su-	.	4E-/	-su-	.	4E-\	.	.	.	.	.	(16E-\LL	.	16E-\LL	.	(16e-/LL	.	16e-/LL	.
.	.	.	.	.	.	.	.	.	.	.	.	.	.	.	16D\	.	(16D\	.	16d/	.	16d/	.
.	.	.	.	.	.	.	.	.	.	.	8E-/	.	8e-/	.	16E-\	.	16E-\	.	16e-/	.	16e-/	.
.	.	.	.	.	.	.	.	.	.	.	.	.	.	.	16F\JJ)	.	16F\JJ)	.	16f/JJ)	.	16f/JJ	.
=2	=2	=2	=2	=2	=2	=2	=2	=2	=2	=2	=2	=2	=2	=2	=2	=2	=2	=2	=2	=2	=2	=2
*	*	*	*	*	*	*	*	*	*	*	*	*	*	*	*tremolo	*	*tremolo	*	*tremolo	*	*tremolo	*
2G\	-re-	.	2G\	-re-	.	2G\	-re-	.	4E-\	.	8E-/	.	8g/	.	(16E-\LL	.	(16G\LL	.	16e-/LL	.	16g/LL	.
.	.	.	.	.	.	.	.	.	.	.	.	.	.	.	16Dn\	.	16F#X\	.	16d/	.	16f#/	.
.	.	.	.	.	.	.	.	.	.	.	4E-/	.	4g/	.	16E-\	.	16G\	.	16e-/	.	16g/	.
.	.	.	.	.	.	.	.	.	.	.	.	.	.	.	16Dn\	.	16F#X\	.	16d/	.	16f#/	.
.	.	.	.	.	.	.	.	.	4E-\	.	.	.	.	.	16E-\	.	16G\	.	16e-/	.	16gX/	.
.	.	.	.	.	.	.	.	.	.	.	.	.	.	.	16Dn\	.	16F#X\	.	16d/	.	16f#X/	.
.	.	.	.	.	.	.	.	.	.	.	4E-/	.	4g/	.	16E-\	.	16G\	.	16e-/	.	16gX/	.
.	.	.	.	.	.	.	.	.	.	.	.	.	.	.	16Dn\)JJ	.	16F#X\)JJ	.	16d/JJ	.	16f#X/JJ	.
*	*	*	*	*	*	*	*	*	*	*	*	*	*	*	*Xtremolo	*	*Xtremolo	*	*Xtremolo	*	*Xtremolo	*
2G\	-xit	.	2G\	-xit	.	2G\	-xit	.	4E-\	.	.	.	.	.	(16E-\LL	.	(16G\LL	.	16e-/LL	.	16g/LL	.
.	.	.	.	.	.	.	.	.	.	.	.	.	.	.	16D\	.	16F#\	.	16d/	.	16f#/	.
.	.	.	.	.	.	.	.	.	.	.	4E-/	.	4g/	.	16E-\	.	16G\	.	16e-/	.	16g/	.
.	.	.	.	.	.	.	.	.	.	.	.	.	.	.	16D\JJ)	.	16F#\JJ)	.	16d/JJ	.	16f#/JJ	.
.	.	.	.	.	.	.	.	.	4E-\	.	.	.	.	.	(16E-\LL	.	(16G\LL	.	16e-/LL	.	16g/LL	.
.	.	.	.	.	.	.	.	.	.	.	.	.	.	.	16D\	.	16F#\	.	16d/	.	16f#/	.
.	.	.	.	.	.	.	.	.	.	.	8E-/	.	8g/	.	16E-\	.	16G\	.	16e-/	.	16g/	.
.	.	.	.	.	.	.	.	.	.	.	.	.	.	.	16F\JJ)	.	16A-\JJ)	.	16f/JJ	.	16a-/JJ	.
!	!	!	!	!	!	!LO:LB:g=original	!	!	!	!	!	!	!	!	!LO:LB:g=original	!	!LO:LB:g=original	!	!	!	!	!
=3	=3	=3	=3	=3	=3	=3	=3	=3	=3	=3	=3	=3	=3	=3	=3	=3	=3	=3	=3	=3	=3	=3
*	*	*	*	*	*	*	*	*	*	*	*	*	*	*	*tremolo	*	*tremolo	*	*tremolo	*	*tremolo	*
2B-\	ter-	.	2B-\	ter-	.	2B-\	ter-	.	4E-\	.	8G/	.	8b-/	.	(16G\LL	.	(16B-\LL	.	16g/LL	.	16b-\LL	.
.	.	.	.	.	.	.	.	.	.	.	.	.	.	.	16F#X\	.	16An\	.	16f#/	.	16a\	.
.	.	.	.	.	.	.	.	.	.	.	4G/	.	4b-/	.	16G\	.	16B-\	.	16g/	.	16b-\	.
.	.	.	.	.	.	.	.	.	.	.	.	.	.	.	16F#X\	.	16An\	.	16f#/	.	16a\	.
.	.	.	.	.	.	.	.	.	4E-\	.	.	.	.	.	16G\	.	16B-\	.	16g/	.	16b-\	.
.	.	.	.	.	.	.	.	.	.	.	.	.	.	.	16F#X\	.	16An\	.	16f#X/	.	16a\	.
.	.	.	.	.	.	.	.	.	.	.	4G/	.	4b-/	.	16G\	.	16B-\	.	16g/	.	16b-\	.
.	.	.	.	.	.	.	.	.	.	.	.	.	.	.	16F#X\)JJ	.	16An\)JJ	.	16f#X/JJ	.	16a\JJ	.
*	*	*	*	*	*	*	*	*	*	*	*	*	*	*	*	*	*	*	*	*	*Xtremolo	*
*	*	*	*	*	*	*	*	*	*	*	*	*	*	*	*	*	*Xtremolo	*	*	*	*	*
*	*	*	*	*	*	*	*	*	*	*	*	*	*	*	*Xtremolo	*	*	*	*	*	*	*
*	*	*	*	*	*	*	*	*	*	*	*	*	*	*	*Xtremolo	*	*Xtremolo	*	*Xtremolo	*	*Xtremolo	*
4B-\	-ti-	.	4B-\	-ti-	.	4B-\	-ti-	.	4E-\	.	.	.	.	.	(16G\LL	.	(16B-\LL	.	16g/LL	.	16b-\LL	.
.	.	.	.	.	.	.	.	.	.	.	.	.	.	.	16F#\	.	16A\	.	16f#/	.	16a\	.
.	.	.	.	.	.	.	.	.	.	.	4G/	.	4b-/	.	16G\	.	16B-\	.	16g/	.	16b-\	.
.	.	.	.	.	.	.	.	.	.	.	.	.	.	.	16F#\JJ)	.	16A\JJ)	.	16f#/JJ	.	16a\JJ	.
4B-\	-a	.	4B-\	-a	.	4B-\	-a	.	4E-\	.	.	.	.	.	(16G\LL	.	(16B-\LL	.	16g/LL	.	16b-\LL	.
.	.	.	.	.	.	.	.	.	.	.	.	.	.	.	16F#\	.	16A\	.	16f#/	.	16a\	.
.	.	.	.	.	.	.	.	.	.	.	8G/	.	8b-/	.	16G\	.	16B-\	.	16g/	.	16b-\	.
.	.	.	.	.	.	.	.	.	.	.	.	.	.	.	16B-\JJ)	.	16d\JJ)	.	16b-/JJ	.	16dd\JJ	.
!LO:LB:g=original	!	!	!LO:LB:g=original	!	!	!	!	!	!	!	!	!	!	!	!	!	!	!	!LO:LB:g=original	!	!LO:LB:g=original	!
=4	=4	=4	=4	=4	=4	=4	=4	=4	=4	=4	=4	=4	=4	=4	=4	=4	=4	=4	=4	=4	=4	=4
4e-\	di-	.	4G/	di-	.	4e-\	di-	.	4E-\	.	4G/	.	4ee-\	.	4G\	.	4e-\	.	4g\	.	4ee-\	.
4E-\	-e	.	4G/	-e	.	4e-\	-e	.	4E-\	.	4G/	.	4ee-\	.	(16E-\LL	.	(16E-\LL	.	16e-/LL	.	16ee-\LL	.
.	.	.	.	.	.	.	.	.	.	.	.	.	.	.	16F\	.	16F\	.	16f/	.	16ff\	.
.	.	.	.	.	.	.	.	.	.	.	.	.	.	.	16G\	.	16G\	.	16g/	.	16gg\	.
.	.	.	.	.	.	.	.	.	.	.	.	.	.	.	16A-\JJ)	.	16A-\JJ)	.	16a-/JJ	.	16aa-\JJ	.
4r	.	.	4r	.	.	4r	.	.	4r	.	4r	.	4r	.	4B-\	.	4B-\	.	4b-\	.	4bb-\	.
4E-\	se-	.	4G/	se-	.	4e-\	se-	.	4E-\	.	4G/	.	4ee-\	.	4E-\	.	4E-\	.	4ee-\	.	4ee-\	.
!	!	!	!	!	!	!	!	!	!	!	!	!	!LO:LB:g=original	!	!	!	!	!	!	!	!	!
=5	=5	=5	=5	=5	=5	=5	=5	=5	=5	=5	=5	=5	=5	=5	=5	=5	=5	=5	=5	=5	=5	=5
(4.B-\	-Cun-	.	(4.F/	-cun-	.	(4.d\	-cun-	.	4.BB-/	.	4.B-/	.	4.ff\	.	4.D\	.	4.F\	.	4.dd\	.	4.ff\	.
8B-\)	.	.	8G/)	.	.	8e-\)	.	.	8BB-/	.	8B-/	.	8gg\	.	8E-\	.	8G\	.	8ee-\	.	8gg\	.
4B-\	-dum	.	4A-/	-dum	.	4f\	-dum	.	4BB-/	.	4B-/	.	4aa-\	.	4F\	.	4A-\	.	4ff\	.	4aa-\	.
4B-\	scrip-	.	4F/	scrip-	.	4B-\	scrip-	.	4BB-/	.	4B-/	.	4ff\	.	4D\	.	4F\	.	4dd\	.	4ff\	.
!	!	!	!	!	!	!	!	!	!LO:LB:g=original	!	!LO:LB:g=original	!	!	!	!	!	!	!	!	!	!	!
=6	=6	=6	=6	=6	=6	=6	=6	=6	=6	=6	=6	=6	=6	=6	=6	=6	=6	=6	=6	=6	=6	=6
4E-\	-tu-	.	4G/	-tu-	.	4e-\	-tu-	.	4E-\	.	4e-\	.	4gg\	.	4E-\	.	4G\	.	4ee-\	.	4gg\	.
4E-\	-ras	.	4G/	-ras	.	4e-\	-ras	.	4E-\	.	4e-\	.	4gg\	.	(16E-\LL	.	(16E-\LL	.	16e-/LL	.	16ee-\LL	.
.	.	.	.	.	.	.	.	.	.	.	.	.	.	.	16F\	.	16F\	.	16f/	.	16ff\	.
.	.	.	.	.	.	.	.	.	.	.	.	.	.	.	16G\	.	16G\	.	16g/	.	16gg\	.
.	.	.	.	.	.	.	.	.	.	.	.	.	.	.	16A-\JJ)	.	16A-\JJ)	.	16a-/JJ	.	16aa-\JJ	.
4r	.	.	4r	.	.	4r	.	.	4r	.	4r	.	4r	.	4B-\	.	4B-'\	.	4b-\	.	4bb-\	.
8E-\	et	.	8G/	et	.	8e-\	et	.	4E-\	.	4e-\	.	4gg\	.	4E-\	.	4G\	.	4b-\	.	4ee-\	.
8E-\	as-	.	8G/	as-	.	8e-\	as-	.	.	.	.	.	.	.	.	.	.	.	.	.	.	.
!LO:LB:g=original	!	!	!LO:LB:g=original	!	!	!LO:LB:g=original	!	!	!	!	!	!	!	!	!	!	!	!	!	!	!	!
=7	=7	=7	=7	=7	=7	=7	=7	=7	=7	=7	=7	=7	=7	=7	=7	=7	=7	=7	=7	=7	=7	=7
!	!	!	!	!	!	!	!LO:MO:mod=cen-	!	!	!	!	!	!	!	!	!	!	!	!	!	!	!
4B-\	-cen-	.	4F/	-cen-	.	4d\	-scen-	.	4.BB-/	.	4.B-/	.	4.ff\	.	4.D\	.	4.F\	.	4.dd\	.	4.ff\	.
8B-\	-dit	.	8G/	-dit	.	8e-\	-dit	.	.	.	.	.	.	.	.	.	.	.	.	.	.	.
8B-\	in	.	8G/	in	.	8e-\	in	.	8BB-/	.	8B-/	.	8gg\	.	8E-\	.	8G\	.	8ee-\	.	8gg\	.
!	!LO:MO:mod=cae-	!	!	!LO:MO:mod=cae-	!	!	!	!	!	!	!	!	!	!	!	!	!	!	!	!	!	!
2B-\	ce-	.	(4A-/	ce-	.	(4f\	cae-	.	4BB-/	.	4B-/	.	4aa-\	.	4F\	.	4A-\	.	4ff\	.	4aa-\	.
.	.	.	4F/)	.	.	4B-\)	.	.	4BB-/	.	4B-/	.	4ff\	.	4D\	.	4F\	.	4dd\	.	4ff\	.
=8	=8	=8	=8	=8	=8	=8	=8	=8	=8	=8	=8	=8	=8	=8	=8	=8	=8	=8	=8	=8	=8	=8
!	!	!	!	!	!	!	!	!	!	!	!	!	!	!	!	!	!	!	!LO:TX:t=P:problem=mixed beam	!	!LO:TX:t=P:problem=mixed beam	!
4E-\	-lum	.	4G/	-lum	.	4e-\	-lum	.	4E-\	.	4e-\	.	4gg\	.	8E-'\L	.	8G'\L	.	8ee-'\L	.	8gg\L	.
.	.	.	.	.	.	.	.	.	.	.	.	.	.	.	8E-'\	.	8E-'\	.	8e-'/	.	8e-'/	.
4r	.	.	4r	.	.	4r	.	.	4r	.	4r	.	4r	.	8F'\	.	8F'\	.	8f'/	.	8f'/	.
.	.	.	.	.	.	.	.	.	.	.	.	.	.	.	8G'\J	.	8G'\J	.	8g'/J	.	8g'/J	.
2r	.	.	2r	.	.	2r	.	.	2r	.	2r	.	2r	.	8A-'\L	.	8A-'\L	.	8a-'\L	.	8a-'\L	.
.	.	.	.	.	.	.	.	.	.	.	.	.	.	.	8B-'\	.	8B-'\	.	8b-'\	.	8b-'\	.
.	.	.	.	.	.	.	.	.	.	.	.	.	.	.	8c'\	.	8c'\	.	8cc'\	.	8cc'\	.
.	.	.	.	.	.	.	.	.	.	.	.	.	.	.	8d'\J	.	8d'\J	.	8dd'\J	.	8dd'\J	.
!	!	!	!	!	!	!	!	!	!	!	!	!	!	!	!LO:PB:g=original	!	!LO:PB:g=original	!	!	!	!	!
=9	=9	=9	=9	=9	=9	=9	=9	=9	=9	=9	=9	=9	=9	=9	=9	=9	=9	=9	=9	=9	=9	=9
4e-\	Se-	.	4e-\	Se-	.	4e-\	se-	.	4E-\	.	2e-\	.	2ee-\	.	4e-\	.	4e-\	.	4ee-\	.	4ee-\	.
8e-\	-det	.	8e-\	-det	.	8e-\	-det	.	8E-\L	.	.	.	.	.	8E-\L	.	8e-\L	.	8ee-\L	.	8ee-\L	.
8e-\	ad	.	8e-\	ad	.	8e-\	ad	.	8E-\J	.	.	.	.	.	8E-\J	.	8e-\J	.	8ee-\J	.	8ee-\J	.
(8e-\L	dex-	.	(8e-\L	dex-	.	(8e-\L	dex-	.	8E-\	.	2r	.	2r	.	8E-\L	.	8e-\L	.	8ee-\L	.	8ee-\L	.
8d\J)	.	.	8d\J)	.	.	8d\J)	.	.	8r	.	.	.	.	.	8D\	.	8d\	.	8dd\	.	8dd\	.
8c\	-te-	.	8c\	-te-	.	8c\	-te-	.	4r	.	.	.	.	.	8C\	.	8c\	.	8cc\	.	8cc\	.
8Bn\	-ram	.	8Bn\	-ram	.	8Bn\	-ram	.	.	.	.	.	.	.	8BBn\J	.	8Bn\J	.	8bX\J	.	8bX\J	.
!LO:LB:g=original	!	!	!LO:LB:g=original	!	!	!LO:LB:g=original	!	!	!	!	!	!	!	!	!	!	!	!	!LO:LB:g=original	!	!LO:LB:g=original	!
=10	=10	=10	=10	=10	=10	=10	=10	=10	=10	=10	=10	=10	=10	=10	=10	=10	=10	=10	=10	=10	=10	=10
4c\	se-	.	4c\	se-	.	4c\	se-	.	4C/	.	2c/	.	2cc/	.	4C/	.	4c\	.	4cc\	.	4cc\	.
8c\	-det	.	8c\	-det	.	8c\	-det	.	8C/L	.	.	.	.	.	8C/L	.	8c\L	.	8cc\L	.	8cc\L	.
8c\	ad	.	8c\	ad	.	8c\	ad	.	8C/J	.	.	.	.	.	8C/J	.	8c\J	.	8cc\J	.	8cc\J	.
(8c\L	dex-	.	(8c\L	dex-	.	(8c\L	dex-	.	8C/	.	2r	.	2r	.	8C/L	.	8c\L	.	8cc\L	.	8cc\L	.
8B-X\J)	.	.	8B-X\J)	.	.	8B-X\J)	.	.	8r	.	.	.	.	.	8BB-X/	.	8B-X\	.	8b-\	.	8b-\	.
8A-\	-te-	.	8A-\	-te-	.	8A-\	-te-	.	4r	.	.	.	.	.	8AA-/	.	8A-\	.	8a-\	.	8a-\	.
8G\	-ram	.	8G\	-ram	.	8G/	-ram	.	.	.	.	.	.	.	8GG/J	.	8G\J	.	8g\J	.	8g\J	.
=11	=11	=11	=11	=11	=11	=11	=11	=11	=11	=11	=11	=11	=11	=11	=11	=11	=11	=11	=11	=11	=11	=11
4A-\	pa-	.	4A-\	pa-	.	4A-\	pa-	.	4AA-/	.	2r	.	2r	.	4AA-/	.	4A-\	.	4a-\	.	4a-\	.
4c\	-tris	.	4c\	-tris	.	4c\	-tris	.	4C/	.	.	.	.	.	4C/	.	4c\	.	4cc\	.	4cc\	.
4B-\	pa-	.	4B-\	pa-	.	4B-\	pa-	.	4BB-/	.	4r	.	4r	.	4BB-/	.	4B-\	.	4b-\	.	4b-\	.
!	!	!	!	!	!	!	!	!	!	!	!	!	!	!	!	!	!	!	!	!	!LO:TX:t=P:problem=klamra łukowa	!
4BB-/	-tris	.	4A-\	-tris	.	4d\	-tris	.	4B-\	.	4B-/	.	4ff\	.	4BB-/	.	4F\	.	4a-\	.	12aa-\L	.
.	.	.	.	.	.	.	.	.	.	.	.	.	.	.	.	.	.	.	.	.	12ff\	.
.	.	.	.	.	.	.	.	.	.	.	.	.	.	.	.	.	.	.	.	.	12dd\J	.
!	!	!	!	!	!	!	!	!	!LO:LB:g=original	!	!	!	!	!	!	!	!	!	!	!	!	!
=12	=12	=12	=12	=12	=12	=12	=12	=12	=12	=12	=12	=12	=12	=12	=12	=12	=12	=12	=12	=12	=12	=12
4e-\	Se-	.	4G\	se-	.	4e-\	se-	.	4E-\	.	2G/	.	2ee-\	.	4E-\	.	4G\	.	4g\	.	4ee-\	.
8e-\	-det	.	8e-\	-det	.	8e-\	-det	.	8E-\L	.	.	.	.	.	8E-\L	.	8e-\L	.	8ee-\L	.	8ee-\L	.
8e-\	ad	.	8e-\	ad	.	8e-\	ad	.	8E-\J	.	.	.	.	.	8E-\J	.	8e-\J	.	8ee-\J	.	8ee-\J	.
(8e-\L	dex-	.	(8e-\L	dex-	.	(8e-\L	dex-	.	8E-\	.	2r	.	2r	.	8E-\L	.	8e-\L	.	8ee-\L	.	8ee-\L	.
8d\J)	.	.	8d\J)	.	.	8d\J)	.	.	8r	.	.	.	.	.	8D\	.	8d\	.	8dd\	.	8dd\	.
8c\	-te-	.	8c\	-te-	.	8c\	-te-	.	4r	.	.	.	.	.	8C\	.	8c\	.	8cc\	.	8cc\	.
8Bn\	-ram	.	8Bn\	-ram	.	8Bn\	-ram	.	.	.	.	.	.	.	8BBn\J	.	8Bn\J	.	8bX\J	.	8bX\J	.
!LO:LB:g=original	!	!	!LO:LB:g=original	!	!	!LO:LB:g=original	!	!	!	!	!	!	!LO:LB:g=original	!	!LO:LB:g=original	!	!	!	!	!	!	!
=13	=13	=13	=13	=13	=13	=13	=13	=13	=13	=13	=13	=13	=13	=13	=13	=13	=13	=13	=13	=13	=13	=13
4c\	se-	.	4c\	se-	.	4c\	se-	.	4C/	.	2c/	.	2cc/	.	4C/	.	4c\	.	4cc\	.	4cc\	.
8c\	-det	.	8c\	-det	.	8c\	-det	.	8C/L	.	.	.	.	.	8C/L	.	8c\L	.	8cc\L	.	8cc\L	.
8c\	ad	.	8c\	ad	.	8c\	ad	.	8C/J	.	.	.	.	.	8C/J	.	8c\J	.	8cc\J	.	8cc\J	.
(8c\L	dex-	.	(8c\L	dex-	.	(8c\L	dex-	.	8C/	.	2r	.	2r	.	8C/L	.	8c\L	.	8cc\L	.	8cc\L	.
8B-X\J)	.	.	8B-X\J)	.	.	8B-X\J)	.	.	8r	.	.	.	.	.	8BB-X/	.	8B-X\	.	8b-\	.	8b-\	.
8A-\	-te-	.	8A-\	-te-	.	8A-\	-te-	.	4r	.	.	.	.	.	8AA-/	.	8A-\	.	8a-\	.	8a-\	.
8G\	-ram	.	8G/	-ram	.	8G/	-ram	.	.	.	.	.	.	.	8GG/J	.	8G\J	.	8g\J	.	8g\J	.
!	!	!	!	!	!	!	!	!	!	!	!LO:LB:g=original	!	!	!	!	!	!LO:LB:g=original	!	!	!	!	!
=14	=14	=14	=14	=14	=14	=14	=14	=14	=14	=14	=14	=14	=14	=14	=14	=14	=14	=14	=14	=14	=14	=14
4A-\	pa-	.	4A-\	pa-	.	4A-\	pa-	.	4AA-/	.	2r	.	2r	.	4AA-/	.	4A-\	.	4a-\	.	4a-\	.
4c\	-tris	.	4c\	-tris	.	4c\	-tris	.	4C/	.	.	.	.	.	4C/	.	4c\	.	4cc\	.	4cc\	.
(4B-\	pa-	.	(4B-\	pa-	.	(4B-\	pa-	.	4BB-/	.	4r	.	4r	.	4BB-/	.	4B-\	.	4b-\	.	4b-\	.
!	!	!	!	!	!	!	!	!	!	!	!	!LO:DY:b	!	!LO:DY:b:t=p.	!	!	!	!LO:DY:b	!	!	!LO:TX:t=P:problem=klamra łukowa	!
4BB-/)	.	.	4A-\)	.	.	4d\)	.	.	4BB-/	.	4B-/	p	4ff\	p	4BB-/	.	4B-\	p	4a-\	.	12aa-\L	.
.	.	.	.	.	.	.	.	.	.	.	.	.	.	.	.	.	.	.	.	.	12ff\	.
.	.	.	.	.	.	.	.	.	.	.	.	.	.	.	.	.	.	.	.	.	12dd\J	.
=15	=15	=15	=15	=15	=15	=15	=15	=15	=15	=15	=15	=15	=15	=15	=15	=15	=15	=15	=15	=15	=15	=15
*	*	*	*	*	*	*	*	*	*	*	*	*	*	*	*	*	*	*	*tremolo	*	*	*
!	!	!	!	!	!	!	!	!	!	!	!	!	!	!	!	!	!LO:TX:a:t=1	!	!	!LO:DY:b:t=p.	!	!
4E-\	-tris	.	4G\	-tris	.	4e-\	-tris	.	4E-\	.	4A-/	.	4ee-\	.	8E-\	.	1B-	.	(8g\L	p	4ee-\	.
.	.	.	.	.	.	.	.	.	.	.	.	.	.	.	8r	.	.	.	8b-\	.	.	.
4r	.	.	4r	.	.	4r	.	.	4r	.	4A-/	.	4ee-\	.	8BB-/	.	.	.	8g\	.	4r	.
.	.	.	.	.	.	.	.	.	.	.	.	.	.	.	8r	.	.	.	8b-\J	.	.	.
!	!	!	!	!	!	!	!	!	!	!	!	!	!	!	!	!	!	!	!	!	!	!LO:DY:b:t=p.
2r	.	.	2A-\	Ex-	.	4B-\	ex-	.	2r	.	4A-/	.	4ee-\	.	8E-\	.	.	.	8g\L	.	(4b-\	p
.	.	.	.	.	.	.	.	.	.	.	.	.	.	.	8r	.	.	.	8b-\	.	.	.
.	.	.	.	.	.	4e-\	.	.	.	.	4A-/	.	4ee-\	.	8BB-/	.	.	.	8g\	.	4ee-\)	.
.	.	.	.	.	.	.	.	.	.	.	.	.	.	.	8r	.	.	.	8b-\)J	.	.	.
!LO:LB:g=original	!	!	!LO:LB:g=original	!	!	!LO:LB:g=original	!	!	!	!	!	!	!	!	!	!	!	!	!LO:LB:g=original	!	!LO:LB:g=original	!
=16	=16	=16	=16	=16	=16	=16	=16	=16	=16	=16	=16	=16	=16	=16	=16	=16	=16	=16	=16	=16	=16	=16
!	!	!	!	!	!	!	!	!	!LO:TX:a:t=5.	!	!	!	!	!	!	!	!LO:TX:a:t=2	!	!	!	!	!
2r	.	.	4A-\	-pec-	.	4f\	-pec-	.	00r	.	4B-/	.	4ff\	.	8D\	.	1B-	.	8a-\L	.	4ff\	.
.	.	.	.	.	.	.	.	.	.	.	.	.	.	.	8r	.	.	.	8b-\	.	.	.
.	.	.	4A-\	-to	.	4f\	-to	.	.	.	4B-/	.	4ff\	.	8BB-/	.	.	.	8a-\	.	4ff\	.
.	.	.	.	.	.	.	.	.	.	.	.	.	.	.	8r	.	.	.	8b-\J	.	.	.
4r	.	.	4A-\	re-	.	(8e-\L	re-	.	.	.	4B-/	.	4ff\	.	8D\	.	.	.	8a-\L	.	8ff\L	.
.	.	.	.	.	.	8d\J)	.	.	.	.	.	.	.	.	8r	.	.	.	8b-\	.	8ee-\	.
!	!	!	!	!LO:MO:mod=sur-	!	!	!LO:MO:mod=sur-	!	!	!	!	!	!	!	!	!	!	!	!	!	!	!
4B-\	ex-	.	4A-\	-su-	.	(8c\L	-su-	.	.	.	4B-/	.	4ff\	.	8BB-/	.	.	.	8a-\	.	8dd\	.
.	.	.	.	.	.	8B-\J)	.	.	.	.	.	.	.	.	8r	.	.	.	8b-\J	.	8cc\J	.
!	!	!	!	!	!	!	!	!	!	!	!	!	!	!	!LO:LB:g=original	!	!	!	!	!	!	!
=17	=17	=17	=17	=17	=17	=17	=17	=17	=17	=17	=17	=17	=17	=17	=17	=17	=17	=17	=17	=17	=17	=17
!	!	!	!	!	!	!	!	!	!	!	!	!	!	!	!	!	!LO:TX:a:t=3	!	!	!	!	!
4e-\	-pec-	.	4G/	-re-	.	4e-\	-re-	.	.	.	4A-/	.	4ee-\	.	8E-\	.	1B-	.	8g\L	.	8ee-\L	.
.	.	.	.	.	.	.	.	.	.	.	.	.	.	.	8r	.	.	.	8b-\	.	8gg\	.
4B-\	-to	.	4G/	-cti-	.	4e-\	-cti-	.	.	.	4A-/	.	4ee-\	.	8BB-/	.	.	.	8g\	.	8bb-\	.
.	.	.	.	.	.	.	.	.	.	.	.	.	.	.	8r	.	.	.	8b-\J	.	8gg\J	.
8G\	re-	.	4G/	-o-	.	4e-\	-o-	.	.	.	4A-/	.	4ee-\	.	8E-\	.	.	.	8g\L	.	8ee-\L	.
!	!LO:MO:mod=sur-	!	!	!	!	!	!	!	!	!	!	!	!	!	!	!	!	!	!	!	!	!
8G\	-su-	.	.	.	.	.	.	.	.	.	.	.	.	.	8r	.	.	.	8b-\	.	8bb-\	.
8E-\	-rec-	.	4G/	-nem	.	4e-\	-nem	.	.	.	4A-/	.	4ee-\	.	8BB-/	.	.	.	8g\	.	8gg\	.
!	!LO:MO:mod=ti-	!	!	!	!	!	!	!	!	!	!	!	!	!	!	!	!	!	!	!	!	!
8E-\	-ci-	.	.	.	.	.	.	.	.	.	.	.	.	.	8r	.	.	.	8b-\J	.	8ee-\J	.
=18	=18	=18	=18	=18	=18	=18	=18	=18	=18	=18	=18	=18	=18	=18	=18	=18	=18	=18	=18	=18	=18	=18
!	!	!	!	!	!	!	!	!	!	!	!	!	!	!	!	!	!LO:TX:a:t=4	!	!	!	!	!
4B-\	-o-	.	4A-\	mor-	.	4f\	mor-	.	.	.	4B-/	.	4ff\	.	8D\	.	1B-	.	8a-\L	.	4ff\	.
.	.	.	.	.	.	.	.	.	.	.	.	.	.	.	8r	.	.	.	8b-\	.	.	.
4B-\	-nem	.	4A-\	-tu-	.	4f\	-tu-	.	.	.	4B-/	.	4ff\	.	8BB-/	.	.	.	8a-\	.	4ff\	.
.	.	.	.	.	.	.	.	.	.	.	.	.	.	.	8r	.	.	.	8b-\J	.	.	.
4r	.	.	4A-\	-o-	.	(8e-\L	-o-	.	.	.	4B-/	.	4ff\	.	8D\	.	.	.	8a-\L	.	8ee-\L	.
.	.	.	.	.	.	8d\J)	.	.	.	.	.	.	.	.	8r	.	.	.	8b-\	.	8dd\	.
4B-\	et	.	4A-\	-rum	.	(8c\L	-rum	.	.	.	4B-/	.	4ff\	.	8BB-/	.	.	.	8a-\	.	8cc\	.
.	.	.	.	.	.	8B-\J)	.	.	.	.	.	.	.	.	8r	.	.	.	8b-\J	.	8b-\J	.
!	!	!	!	!	!	!LO:LB:g=original	!	!	!	!	!	!	!	!	!	!	!	!	!	!	!	!
=19	=19	=19	=19	=19	=19	=19	=19	=19	=19	=19	=19	=19	=19	=19	=19	=19	=19	=19	=19	=19	=19	=19
!	!	!	!	!	!	!	!	!	!	!	!	!	!	!	!	!	!LO:TX:a:t=5	!	!	!	!	!
4e-\	vi-	.	4G/	Et	.	4e-\	et	.	.	.	4A-/	.	4ee-\	.	8E-\	.	1B-	.	8g\L	.	8ee-\L	.
.	.	.	.	.	.	.	.	.	.	.	.	.	.	.	8r	.	.	.	8b-\	.	8gg\	.
8B-\	-tam	.	4G/	vi-	.	4e-\	vi-	.	.	.	4A-/	.	4ee-\	.	8BB-/	.	.	.	8g\	.	8bb-\	.
8B-\	ven-	.	.	.	.	.	.	.	.	.	.	.	.	.	8r	.	.	.	8b-\J	.	8gg\J	.
4G\	-tu-	.	4G/	-tam	.	4e-\	-tam	.	.	.	4A-/	.	4ee-\	.	8E-\	.	.	.	8g\L	.	8ee-\L	.
.	.	.	.	.	.	.	.	.	.	.	.	.	.	.	8r	.	.	.	8b-\	.	8bb-\	.
4E-\	-ri	.	4G/	ven-	.	4e-\	ven-	.	.	.	4A-/	.	4ee-\	.	8BB-/	.	.	.	8g\	.	8gg\	.
.	.	.	.	.	.	.	.	.	.	.	.	.	.	.	8r	.	.	.	8b-\J	.	8ee-\J	.
!LO:LB:g=original	!	!	!LO:LB:g=original	!	!	!	!	!	!	!	!	!	!	!	!	!	!	!	!	!	!	!
=20	=20	=20	=20	=20	=20	=20	=20	=20	=20	=20	=20	=20	=20	=20	=20	=20	=20	=20	=20	=20	=20	=20
!	!LO:MO:mod=sae-	!	!	!	!	!	!	!	!	!	!	!	!	!	!	!	!LO:TX:a:t=6	!	!	!	!	!
8B-\	se-	.	4A-\	-tu-	.	4f\	-tu-	.	1r	.	4B-/	.	4ff\	.	8D\	.	1B-	.	8a-\L	.	4ff\	.
8B-\	-cu-	.	.	.	.	.	.	.	.	.	.	.	.	.	8r	.	.	.	8b-\	.	.	.
4B-\	-li	.	4A-\	-ri	.	4f\	-ri	.	.	.	4B-/	.	4ff\	.	8BB-/	.	.	.	8a-\	.	4ff\	.
.	.	.	.	.	.	.	.	.	.	.	.	.	.	.	8r	.	.	.	8b-\J	.	.	.
!	!	!	!	!LO:MO:mod=sae-	!	!	!LO:MO:mod=sae-	!	!	!	!	!	!	!	!	!	!	!	!	!	!	!
2r	.	.	4A-\	se-	.	(8e-\L	se-	.	.	.	4B-/	.	4ff\	.	8D\	.	.	.	8a-\L	.	8ee-\L	.
.	.	.	.	.	.	8d\J)	.	.	.	.	.	.	.	.	8r	.	.	.	8b-\	.	8dd\	.
.	.	.	8A-\	-cu-	.	8c'\L	-cu-	.	.	.	4B-/	.	4ff\	.	8BB-/	.	.	.	8a-\	.	8cc\	.
.	.	.	8A-\	-li	.	8B-'\J	-li	.	.	.	.	.	.	.	8r	.	.	.	8b-\J	.	8b-\J	.
*	*	*	*	*	*	*	*	*	*	*	*	*	*	*	*	*	*	*	*Xtremolo	*	*	*
*	*	*	*	*	*	*	*	*	*	*	*	*	*	*	*	*	*	*	*Xtremolo	*	*	*
!	!	!	!	!	!	!	!	!	!LO:TX:b:t=Verte.	!	!	!	!	!	!	!	!	!	!	!	!	!
!	!	!	!	!	!	!	!	!	!LO:LB:g=original	!	!	!	!LO:LB:g=original	!	!LO:LB:g=original	!	!	!	!LO:LB:g=original	!	!	!
=21	=21	=21	=21	=21	=21	=21	=21	=21	=21	=21	=21	=21	=21	=21	=21	=21	=21	=21	=21	=21	=21	=21
4E-\	A-	.	4G\	A-	.	4e-\	a-	.	4E-\	.	8G/	.	8ee-\	.	4E-\	.	4E-\	.	8g/	.	8ee-\	.
.	.	.	.	.	.	.	.	.	.	.	4G/	.	4ee-\	.	.	.	.	.	4g/	.	4ee-\	.
4E-\	-men	.	4G\	-men	.	4e-\	-men	.	4G\	.	.	.	.	.	4G\	.	4G\	.	.	.	.	.
.	.	.	.	.	.	.	.	.	.	.	4G/	.	4ee-\	.	.	.	.	.	4g/	.	8ee-\	.
8r	.	.	8r	.	.	8r	.	.	4B-\	.	.	.	.	.	4B-\	.	4B-\	.	.	.	8ee-\L	.
(8e-\L	A-	.	(8e-\L	A-	.	(8e-\L	a-	.	.	.	4G/	.	4ee-\	.	.	.	.	.	4g/	.	16bb-\L	.
.	.	.	.	.	.	.	.	.	.	.	.	.	.	.	.	.	.	.	.	.	16aa-\JJ	.
8d\J)	.	.	8d\J)	.	.	8d\J)	.	.	4E-\	.	.	.	.	.	4E-\	.	4E-\	.	.	.	16gg\LL	.
.	.	.	.	.	.	.	.	.	.	.	.	.	.	.	.	.	.	.	.	.	16ff\	.
8e-\	-men	.	8e-\	-men	.	8e-\	-men	.	.	.	8G/	.	8ee-\	.	.	.	.	.	8g/	.	16ee-\	.
.	.	.	.	.	.	.	.	.	.	.	.	.	.	.	.	.	.	.	.	.	16dd\JJ	.
!	!	!	!	!	!	!LO:LB:g=original	!	!	!	!	!LO:LB:g=original	!	!	!	!	!	!	!	!	!	!LO:LB:g=original	!
=22	=22	=22	=22	=22	=22	=22	=22	=22	=22	=22	=22	=22	=22	=22	=22	=22	=22	=22	=22	=22	=22	=22
4c\	A-	.	4c\	A-	.	4c\	a-	.	4C\	.	8G/	.	8ee-\	.	4C\	.	4C\	.	8g/	.	8ee-\	.
.	.	.	.	.	.	.	.	.	.	.	4G/	.	4ee-\	.	.	.	.	.	4g/	.	4ee-\	.
4c\	-men	.	4c\	-men	.	4c\	-men	.	4E-\	.	.	.	.	.	4E-\	.	4E-\	.	.	.	.	.
.	.	.	.	.	.	.	.	.	.	.	4G/	.	4ee-\	.	.	.	.	.	4g/	.	8ee-\	.
8r	.	.	8r	.	.	8r	.	.	4G\	.	.	.	.	.	4G\	.	4G\	.	.	.	8ee-\L	.
(8c\L	A-	.	(8c\L	A-	.	(8c\L	a-	.	.	.	4G/	.	4ee-\	.	.	.	.	.	4g/	.	16gg\L	.
.	.	.	.	.	.	.	.	.	.	.	.	.	.	.	.	.	.	.	.	.	16ff\JJ	.
8B-\J)	.	.	8B-\J)	.	.	8B-\J)	.	.	4C\	.	.	.	.	.	4C\	.	4C\	.	.	.	16ee-\LL	.
.	.	.	.	.	.	.	.	.	.	.	.	.	.	.	.	.	.	.	.	.	16dd\	.
8c\	-men	.	8c\	-men	.	8c\	-men	.	.	.	8G/	.	8ee-\	.	.	.	.	.	8g/	.	16cc\	.
.	.	.	.	.	.	.	.	.	.	.	.	.	.	.	.	.	.	.	.	.	16b-\JJ	.
!LO:LB:g=original	!	!	!LO:LB:g=original	!	!	!	!	!	!	!	!	!	!	!	!	!	!LO:LB:g=original	!	!	!	!	!
=23	=23	=23	=23	=23	=23	=23	=23	=23	=23	=23	=23	=23	=23	=23	=23	=23	=23	=23	=23	=23	=23	=23
4A-\	A-	.	4A-\	A-	.	(4A-\	a-	.	4AA-/	.	8E-/	.	8ff\	.	4AA-/	.	4AA-/	.	8f/	.	8cc\	.
.	.	.	.	.	.	.	.	.	.	.	4E-/	.	4ff\	.	.	.	.	.	4f/	.	4cc\	.
4c\	-men	.	4c\	-men	.	4c\	.	.	4A-\	.	.	.	.	.	4A-\	.	4A-\	.	.	.	.	.
.	.	.	.	.	.	.	.	.	.	.	8E-/	.	4ff\	.	.	.	.	.	8f/	.	8cc\	.
(4B-\	A-	.	(4B-\	A-	.	(4B-\)	.	.	4BB-/	.	8B-/	.	.	.	4BB-/	.	4BB-/	.	8a-\	.	8dd\	.
.	.	.	.	.	.	.	.	.	.	.	4B-/	.	4ff\	.	.	.	.	.	4a-\	.	4dd\	.
4BB-/)	-men	.	4A-\)	.	.	4d\)	-men	.	4B-\	.	.	.	.	.	4B-\	.	4B-\	.	.	.	.	.
.	.	.	.	.	.	.	.	.	.	.	8B-/	.	8ff\	.	.	.	.	.	8a-\	.	8dd\	.
=24	=24	=24	=24	=24	=24	=24	=24	=24	=24	=24	=24	=24	=24	=24	=24	=24	=24	=24	=24	=24	=24	=24
!	!	!	!	!LO:MO:mod=-	!	!	!	!	!	!	!	!	!	!	!	!	!	!	!	!	!	!
4E-\	A-	.	4G/	-men	.	4e-\	a-	.	4E-\	.	8G/	.	8ee-\	.	4E-\	.	4E-\	.	8g/	.	8ee-\	.
.	.	.	.	.	.	.	.	.	.	.	4G/	.	4ee-\	.	.	.	.	.	4g/	.	4ee-\	.
!	!	!	!	!LO:MO:mod=men	!	!	!	!	!	!	!	!	!	!	!	!	!	!	!	!	!	!
4E-\	-men	.	4G/	a	.	4e-\	-men	.	4G\	.	.	.	.	.	4G\	.	4G\	.	.	.	.	.
.	.	.	.	.	.	.	.	.	.	.	4G/	.	4ee-\	.	.	.	.	.	4g/	.	8ee-\	.
8r	.	.	8r	.	.	8r	.	.	4B-\	.	.	.	.	.	4B-\	.	4B-\	.	.	.	8ee-\L	.
8e-\L	A-	.	(8e-\L	A-	.	(8e-\L	a-	.	.	.	4G/	.	4ee-\	.	.	.	.	.	4g/	.	16bb-\L	.
.	.	.	.	.	.	.	.	.	.	.	.	.	.	.	.	.	.	.	.	.	16aa-\JJ	.
8d\J	.	.	8d\J)	.	.	8d\J)	.	.	4E-\	.	.	.	.	.	4E-\	.	4E-\	.	.	.	16gg\LL	.
.	.	.	.	.	.	.	.	.	.	.	.	.	.	.	.	.	.	.	.	.	16ff\	.
!	!	!	!	!	!	!LO:TX:a:t=vi	!	!	!	!	!	!	!	!	!	!	!	!	!	!	!	!
8e-\	-men	.	8e-\	-men	.	8e-\	-men	.	.	.	8G/	.	8ee-\	.	.	.	.	.	8g/	.	16ee-\	.
.	.	.	.	.	.	.	.	.	.	.	.	.	.	.	.	.	.	.	.	.	16dd\JJ	.
=25	=25	=25	=25	=25	=25	=25	=25	=25	=25	=25	=25	=25	=25	=25	=25	=25	=25	=25	=25	=25	=25	=25
!	!	!	!	!	!	!LO:TX:a:t=P:problem= takt dopisany na końcu części	!	!	!	!	!	!	!	!	!	!	!	!	!	!	!	!
!	!	!	!	!	!	!LO:TX:a:t=de	!	!	!	!	!	!	!	!	!	!	!	!	!	!	!	!
4c\	A-	.	4c\	a-	.	4c\	a-	.	4C\	.	8G/	.	8ee-\	.	4C\	.	4C\	.	8g/	.	8ee-\	.
.	.	.	.	.	.	.	.	.	.	.	4G/	.	4ee-\	.	.	.	.	.	4g/	.	4ee-\	.
4c\	-men	.	4c\	-men	.	4c\	-men	.	4E-\	.	.	.	.	.	4E-\	.	4E-\	.	.	.	.	.
.	.	.	.	.	.	.	.	.	.	.	4G/	.	4ee-\	.	.	.	.	.	4g/	.	8ee-\	.
8r	.	.	8r	.	.	8r	.	.	4G\	.	.	.	.	.	4G\	.	4G\	.	.	.	8ee-\L	.
(8c\L	A-	.	(8c\L	A-	.	(8c\L	a-	.	.	.	4G/	.	4ee-\	.	.	.	.	.	4g/	.	16gg\L	.
.	.	.	.	.	.	.	.	.	.	.	.	.	.	.	.	.	.	.	.	.	16ff\JJ	.
8B-\J)	.	.	8B-\J)	.	.	8B-\J)	.	.	4C\	.	.	.	.	.	4C/	.	4C\	.	.	.	16ee-\LL	.
.	.	.	.	.	.	.	.	.	.	.	.	.	.	.	.	.	.	.	.	.	16dd\	.
!	!	!	!	!	!	!LO:TX:a:t=re	!	!	!	!	!	!	!	!	!	!	!	!	!	!	!	!
8c\	-men	.	8c\	-men	.	8c\	-men	.	.	.	8G/	.	8ee-\	.	.	.	.	.	8g/	.	16cc\	.
.	.	.	.	.	.	.	.	.	.	.	.	.	.	.	.	.	.	.	.	.	16b-\JJ	.
!LO:LB:g=original	!	!	!LO:LB:g=original	!	!	!	!	!	!	!	!	!	!	!	!LO:LB:g=original	!	!	!	!LO:LB:g=original	!	!LO:LB:g=original	!
=26	=26	=26	=26	=26	=26	=26	=26	=26	=26	=26	=26	=26	=26	=26	=26	=26	=26	=26	=26	=26	=26	=26
!	!	!	!	!	!	!LO:TX:a:t=tro	!	!	!	!	!	!	!	!	!	!	!	!	!	!	!	!
4A-\	A-	.	4A-\	A-	.	(4A-\	a-	.	4AA-/	.	8E-/	.	8ff\	.	4AA-/	.	4AA-/	.	8f/	.	8cc\	.
.	.	.	.	.	.	.	.	.	.	.	4E-/	.	4ff\	.	.	.	.	.	4f/	.	4cc\	.
4c\	-men	.	4c\	-men	.	4c\	.	.	4AA-/	.	.	.	.	.	4A-\	.	4A-\	.	.	.	.	.
.	.	.	.	.	.	.	.	.	.	.	8E-/	.	4ff\	.	.	.	.	.	8f/	.	8cc\	.
4B-\	A-	.	(4B-\	A-	.	(4B-\)	.	.	4BB-/	.	8B-/	.	.	.	4BB-/	.	4BB-/	.	8a-\	.	8dd\	.
.	.	.	.	.	.	.	.	.	.	.	4B-/	.	4ff\	.	.	.	.	.	4a-\	.	4dd\	.
4BB-/	.	.	4A-\)	.	.	4d\)	.	.	4BB-/	.	.	.	.	.	4B-\	.	4B-\	.	.	.	.	.
.	.	.	.	.	.	.	.	.	.	.	8B-/	.	8ff\	.	.	.	.	.	8a-\	.	8dd\	.
!	!	!	!	!	!	!	!	!	!LO:LB:g=original	!	!	!	!LO:LB:g=original	!	!	!	!	!	!	!	!	!
=27	=27	=27	=27	=27	=27	=27	=27	=27	=27	=27	=27	=27	=27	=27	=27	=27	=27	=27	=27	=27	=27	=27
4E-\	-men	.	4G/	-men	.	4e-\	-men	.	4E-\	.	4G/	.	4ee-\	.	4E-\	.	4B-\	.	4g\	.	8ee-\L	.
.	.	.	.	.	.	.	.	.	.	.	.	.	.	.	.	.	.	.	.	.	8bb-\	.
4r	.	.	4r	.	.	4r	.	.	4r	.	4B-/	.	4gg\	.	4B-\	.	4e-\	.	4b-\	.	8gg\	.
.	.	.	.	.	.	.	.	.	.	.	.	.	.	.	.	.	.	.	.	.	8ee-\J	.
2BB-/	A-	.	2A-^\	A-	.	2d^\	a-	.	4BB-/	.	4B-/	.	4ff\	.	4BB-/	.	4B-\	.	4a-\	.	8dd\L	.
.	.	.	.	.	.	.	.	.	.	.	.	.	.	.	.	.	.	.	.	.	8b-\	.
.	.	.	.	.	.	.	.	.	4r	.	4B-/	.	4ff\	.	4B-\	.	4d\	.	4a-\	.	8cc\	.
.	.	.	.	.	.	.	.	.	.	.	.	.	.	.	.	.	.	.	.	.	8dd\J	.
!	!	!	!	!	!	!	!	!	!	!	!LO:LB:g=original	!	!	!	!	!	!	!	!	!	!	!
=28	=28	=28	=28	=28	=28	=28	=28	=28	=28	=28	=28	=28	=28	=28	=28	=28	=28	=28	=28	=28	=28	=28
4E-\	-men	.	4G/	-men	.	4e-\	-men	.	4E-\	.	4G/	.	4ee-\	.	4E-\	.	4B-\	.	4g\	.	8ee-\L	.
.	.	.	.	.	.	.	.	.	.	.	.	.	.	.	.	.	.	.	.	.	8bb-\	.
4r	.	.	4r	.	.	4r	.	.	4r	.	4B-/	.	4ee-\	.	4B-\	.	4e-\	.	4b-\	.	8gg\	.
.	.	.	.	.	.	.	.	.	.	.	.	.	.	.	.	.	.	.	.	.	8ee-\J	.
2BB-/	A-	.	2A-^\	A-	.	2d^\	a-	.	4BB-/	.	4B-/	.	4ff\	.	4BB-/	.	4B-\	.	4a-\	.	8dd\L	.
.	.	.	.	.	.	.	.	.	.	.	.	.	.	.	.	.	.	.	.	.	8b-\	.
.	.	.	.	.	.	.	.	.	4r	.	4B-/	.	4ff\	.	4B-\	.	4d\	.	4a-\	.	8cc\	.
.	.	.	.	.	.	.	.	.	.	.	.	.	.	.	.	.	.	.	.	.	8dd\J	.
!	!	!	!LO:LB:g=original	!	!	!LO:LB:g=original	!	!	!	!	!	!	!	!	!	!	!LO:LB:g=original	!	!	!	!	!
=29	=29	=29	=29	=29	=29	=29	=29	=29	=29	=29	=29	=29	=29	=29	=29	=29	=29	=29	=29	=29	=29	=29
4E-\	-men	.	4G\	-men	.	4e-\	-men	.	4E-\	.	4G/	.	4ee-\	.	4E-\	.	4B-\	.	4g\	.	8ee-\L	.
.	.	.	.	.	.	.	.	.	.	.	.	.	.	.	.	.	.	.	.	.	8b-\	.
4BB-/	a-	.	4A-\	A-	.	4d\	a-	.	4BB-/	.	4B-/	.	4ff\	.	4BB-/	.	4B-\	.	4a-\	.	8dd\	.
.	.	.	.	.	.	.	.	.	.	.	.	.	.	.	.	.	.	.	.	.	8b-\J	.
4E-\	-men	.	4G\	-men	.	4e-\	-men	.	4E-\	.	4G/	.	4ee-\	.	4E-\	.	4B-\	.	4g\	.	8ee-\L	.
.	.	.	.	.	.	.	.	.	.	.	.	.	.	.	.	.	.	.	.	.	8b-\	.
4BB-/	A-	.	4A-\	A-	.	4d\	a-	.	4BB-/	.	4B-/	.	4ff\	.	4BB-/	.	4B-\	.	4a-\	.	8dd\	.
.	.	.	.	.	.	.	.	.	.	.	.	.	.	.	.	.	.	.	.	.	8b-\J	.
!LO:LB:g=original	!	!	!	!	!	!	!	!	!	!	!	!	!	!	!	!	!	!	!	!	!	!
=30	=30	=30	=30	=30	=30	=30	=30	=30	=30	=30	=30	=30	=30	=30	=30	=30	=30	=30	=30	=30	=30	=30
2E-;\	-men	.	2G;/	-men	.	2e-;\	-men	.	2E-\;	.	2G;/	.	2ee-;\	.	2E-;\	.	2B-;\	.	2g;/	.	2ee-;\	.
2r	.	.	2r	.	.	2r	.	.	2r	.	2r	.	2r	.	2r	.	2r	.	2r	.	2r	.
==	==;;	==	==;;	==	==	==;;	==	==	==;;	==;;	==;;	==	==;;	==	==;;	==	==;;	==	==;;	==	==;;	==
*-	*-	*-	*-	*-	*-	*-	*-	*-	*-	*-	*-	*-	*-	*-	*-	*-	*-	*-	*-	*-	*-	*-
!!!system-decoration: [(g1)][(g2)][(g3)]
!!!ENC: Anna Matuszewska
!!!END: 2020-12-28
!!!ENC: Marta Chmielewska
!!!END: 2020-07-02
!!!YEC: Copyright 2022 Narodowy Instytut Fryderyka Chopina (https://polishscores.org)
!!!YEM: License CC-BY-4.0 (https://creativecommons.org/licenses/by/4.0)
